X:277
T:Cutting Bracken 
C:Joe Buchanan's Scottish Tome - Page 320.2
I:320 2
R:Jig
Z:Carl Allison
L:1/8
M:6/8
K:C
e | "Am" A>AA a3 | "Em" g>ee g3 | "C" (e2 d) "G" (B2 A) | "Em" G>AA B>GG |
"Am" A>AA a3 | "Em" g>ee g3 | "C" (e2 d) "Em" B>ee | "Am" A3 A/A/ :|
"Am" (e2 d) "G" B>AA | "Em" G>AA "G" B>GG | "Am" (e2 d) "Em" B>AA | B3 d3 |
"Am" (e2 d) "G" B>AA | "Em" G>AA "G" B>AA | "Am" (e2 d) B>ee | "Am" A3 A/A/ :|
G | "Am" A>AA a3 | "Em" g>ee "G" d>eg | "G" G>GG "Em"(g2 e) | "G" d>BB d>eB |
"Am" A>AA a3 | "Em" g>ee "G" d>eg | "G" e>ee "Em" B>ee | "Am" A3 A/A/ :|
"Am" (e2 d) "G" B>BB | "Em" G>AA "G" B>BB | "Am" G>AA "Em" B>AA | "G" B3 d3 |
"Am" (e2 d) "G" B>BB | "Em" G>AA "G" B>dd | "Am" e>dd "G" B>ee | "Am" A3 A/A/ :|

